X:911
T:Ffarwel Ir Marian
% Nottingham Music Database
T:Tune
P:AAB
S:JP/AF 85
M:3/4
L:1/4
K:Dm
P:A
A|"Dm"A/2d/2 A/2=B/2 ^c/2d/2|"A"eA2|"Gm"f/2g/2 f/2e/2 d/2e/2|"A7"^cA2|\
"Dm"A/2d/2 A/2G/2 A/2F/2|"Gm"B/2d/2 B/2A/2 B/2G/2|"Dm/a"F/2A/2F"A7"E|"Dm"D2:|
P:B
D|"F"Ac3/2A/2|"C"G"F"A2|"F"Ac3/2d/2|"Am"eA2|\
"Dm"fg3/2f/2|"Am"fed|"E7"c/2e/2c=B|"Am"A2"A7"A|
"Dm"A/2d/2A/2=B/2^c/2d/2|"A"eA2|"Gm"f/2g/2 f/2e/2 d/2e/2|"A7"^cA2|\
"Dm"A/2d/2 A/2G/2 A/2F/2|"Gm"B/2d/2 B/2A/2 B/2G/2|"Dm/a"F/2A/2F"A7"E|"Dm"D2|]
T:Harmony 1
P:A
z|"Dm"A3|"A"A/^G/ A/B/ ^c/A/|"Gm"d2d|"A7"^c/d/ c/B/ A/G/|\
"Dm"F/E/ F/G/ A/c/|"Gm"B/A/ B/c/ d/f/|"Dm/a"e/f/ e/d/ "A7"^c/e/|"Dm"d2 e|
"Dm"f2 d|"A"^c/d/ c/B/ A|"Gm"B d f|"A7"e/f/ e/d/ ^c|\
"Dm"d/^c/ d/e/ f/d/|"Gm"g/f/ g/a/ g/f/|"Dm/a"e/f/ e/d/ "A7"^c/e/|"Dm"d2|]
P:B
e|"F"f- f>f|"C"e "F"f2|"F"f g>f|"Am"f e2|\
"Dm"f d A|"Am"e c A|"E7"e z z|"Am"e/f/ e/d/ "A7"^c/e/|
"Dm"d3|"A"^c/d/ c/B/ A|"Gm"B d f|"A7"e/f/ e/d/ ^c|\
"Dm"d/^c/ d/e/ f/d/|"Gm"g/f/ g/a/ g/f/|"Dm/a"e/f/ e/d/ ^c/e/|"Dm"d2|]
T:Harmony 2 / Harmony 3
P:A
[AD]|"Dm"[d/A/][d/A/] [d/A/][d/A/] [d/A/][d/A/]|"A".[^cA] .[^cA] z|\
"Gm"[d/G/][d/G/] [d/G/][d/G/] [d/G/][d/G/]|"A7".[AE] .[AE] z|\
"Dm"[d/A/][d/A/] [d/A/][d/A/] [d/A/][d/A/]|"Gm"[B/G/][B/G/] [B/G/][B/G/] [B/G/][B/G/]|\
"Dm/a"[A/F/][A/F/] [AF] "A7"[AE]|"Dm"[A2D2]:|
P:B
[FD]|"F"[AF] [AF]>[AF]|"C"[GE] "F"[AF] z|"F"[AF] [AF]>[AF]|"Am"[AE] [AE] z|\
"Dm"[d3A3]|"Am"[c3A3]|"E7"[^G3E3]|"Am"[A2E2]-"A7"[AE]|
"Dm"[d/A/][d/A/] [d/A/][d/A/] [d/A/][d/A/]|"A".[^cA] .[^cA] z|\
"Gm"[d/G/][d/G/] [d/G/][d/G/] [d/G/][d/G/]|"A7".[AE] .[AE] z|\
"Dm"[d/A/][d/A/] [d/A/][d/A/] [d/A/][d/A/]|"Gm"[B/G/][B/G/] [B/G/][B/G/] [B/G/][B/G/]|\
"Dm/a"[A/F/][A/F/] [AF] "A7"[AE]|"Dm"[A2D2]:|

%%newpage
%%textfont * 20
%%text W2 (2.0) p3
%%textfont * 12

